X:70
T:Rodney's Glory
M:4/4
K:ADor
L:1/8
ed|c2 Bc ABcA|BGEF G2 cd|efed cdef|gage d2 ed|
c2 Bc ABcA|BGEF G2 ed|c2 Ac BAGB|A2 AG A2 :|
|z2 |eaab aged|efed c2 A2|g fg agec|dcAF G4 |
AGAB cBcd|efge a3 b|aged cdef|gage d2 ed|
c2 Bc ABcA|BGEF G2 ed|c2 Ac BAGB| A2 AG A2 :|
